svgs/sharp-light/arrows-retweet.svg

<svg xmlns="http://www.w3.org/2000/svg" viewBox="0 0 640 512"><!--! Font Awesome Pro 6.6.0 by @fontawesome - https://fontawesome.com License - https://fontawesome.com/license (Commercial License) Copyright 2024 Fonticons, Inc. --><path d="M128 65.4l11.3 11.3 80 80L230.6 168 208 190.6l-11.3-11.3L144 126.6 144 384l192 0 16 0 0 32-16 0-208 0-16 0 0-16 0-273.4L59.3 179.3 48 190.6 25.4 168l11.3-11.3 80-80L128 65.4zm400 320l52.7-52.7L592 321.4 614.6 344l-11.3 11.3-80 80L512 446.6l-11.3-11.3-80-80L409.4 344 432 321.4l11.3 11.3L496 385.4 496 128l-192 0-16 0 0-32 16 0 208 0 16 0 0 16 0 273.4z"/></svg>

<svg xmlns="http://www.w3.org/2000/svg" viewBox="0 0 640 512"><!--! Font Awesome Pro 6.4.2 by @fontawesome - https://fontawesome.com License - https://fontawesome.com/license (Commercial License) Copyright 2023 Fonticons, Inc. --><path d="M128 65.4l11.3 11.3 80 80L230.6 168 208 190.6l-11.3-11.3L144 126.6V384H336h16v32H336 128 112V400 126.6L59.3 179.3 48 190.6 25.4 168l11.3-11.3 80-80L128 65.4zm400 320l52.7-52.7L592 321.4 614.6 344l-11.3 11.3-80 80L512 446.6l-11.3-11.3-80-80L409.4 344 432 321.4l11.3 11.3L496 385.4V128H304 288V96h16H512h16v16V385.4z"/></svg>
